images/facebook.svg

<svg fill="none" height="22" viewBox="0 0 22 22" width="22" xmlns="http://www.w3.org/2000/svg"><path d="m21.12 0h-20.24c-.48675 0-.88.39325-.88.88v20.24c0 .4868.39325.88.88.88h20.24c.4868 0 .88-.3932.88-.88v-20.24c0-.48675-.3932-.88-.88-.88zm-2.541 6.42125h-1.7572c-1.3778 0-1.6445.6545-1.6445 1.617v2.12025h3.2889l-.4289 3.3192h-2.86v8.5223h-3.4293v-8.5195h-2.86825v-3.322h2.86825v-2.4475c0-2.84075 1.7352-4.389 4.2707-4.389 1.2155 0 2.2578.09075 2.5631.132v2.96725z" fill="#061323"/></svg>

<svg width="22" height="22" viewBox="0 0 22 22" fill="none" xmlns="http://www.w3.org/2000/svg">
<path d="M21.12 0H0.88C0.39325 0 0 0.39325 0 0.88V21.12C0 21.6068 0.39325 22 0.88 22H21.12C21.6068 22 22 21.6068 22 21.12V0.88C22 0.39325 21.6068 0 21.12 0ZM18.579 6.42125H16.8218C15.444 6.42125 15.1773 7.07575 15.1773 8.03825V10.1585H18.4662L18.0373 13.4777H15.1773V22H11.748V13.4805H8.87975V10.1585H11.748V7.711C11.748 4.87025 13.4832 3.322 16.0187 3.322C17.2342 3.322 18.2765 3.41275 18.5818 3.454V6.42125H18.579Z" fill="#061323"/>
</svg>
